X:0594
M:6/8
L:1/8
Q:3/8=120
K:G
g   | d2c  BAG| B3  B2g| d2c  BAG | A3 A2
g   | d2c  BAG| B3  B2c| def  g>dB| G3 G2:|
g   | f2g  agf| g2f efg| def  g2B | G3 G2:|

